X:9221
T:Lancashire Quadrilles,#2. JNu.47
M:6/8
L:1/8
Q:110
S:James Nuttall MS,c1830?,Rossendale,East Lancs.
R:Quadrille
O:England
A:East Lancashire
Z:vmp.Manchester Morris Men
K:F
c|"p"fag f2c|dcd c2A|cdc B2e|fga g2c|!
"f"fag f2c|dcd c2A|BAB cde|fag f2::!
"p"a/g/|fef "f"g2f|ecA f2g|agf b2a|fba gec|!
"p"faf g2f|edc f2g|"f"aba gfe|f3 f2:|]


